!!!!SEGMENT: pl-kk--kk-i-20--004_anonim--missa-de-nativitate-domini-agnus-dei.krn
!!!cenid: 17xx:2210
!!!COM: Anonim
!!!COM-rismID: pe30004985
!!!CDT:
!!!CNT:
!!!OPR: Missa De Nativitate Domini
!!!OTL: Agnus Dei
!!!OMV: 004
!!!PDT:
!!!AGN: Sacred; Mass
!!!SMS-siglum: PL-Kk
!!!SMS-shelfmark: Kk.I.20
!!!SMS-shelfwork: 001-004 M
!!!SMS-variant: Baſso. PL-KK KK I 20:0016
!!!SMS-altvar: Baſso PL-KK KK I 20:0022
!!!NIFC-rismSourceID: 1001156656
!!!NIFC-islandoraID: pl-kk:15363
!!!URL-pdf-islandora: https://repozytorium.nifc.pl/islandora/object/pl-kk%3A15363/datastream/PDF/view
!!!URL-scan:
!!!ONB-nifc: UWAGA: części Mszy: 1. Kyrie, 2. Et in terra, 3. Sanctus, 4. Agnus Dei.
!!!AIN: 1 alto 1 empty 1 tenor
!!!key:
**kern	**text	**kern	**text	**kern	**text
*part3	*part3	*part2	*part2	*part1	*part1
*staff3	*staff3	*staff2	*staff2	*staff1	*staff1
*Iempty	*	*Itenor	*	*Ialto	*
*I"Baſso.	*	*I"Tenore	*	*I"Alto.	*
*I'B	*	*I'T	*	*I'A	*
*clefF4	*	*clefC4	*	*clefC3	*
*k[b-]	*	*k[b-]	*	*k[b-]	*
*F:	*	*F:	*	*F:	*
*M3/2	*	*M3/2	*	*M3/2	*
=1	=1	=1	=1	=1	=1
!LO:TX:t=P:problem=przy kluczu BB- B-	!	!	!	!	!
1G	A-	1B-	A-	1d	A-
*2\right	*	*2\right	*	*2\right	*
2D\	-gnus	2A\	-gnus	2d\	-gnus
=2	=2	=2	=2	=2	=2
2.G\	De-	2.B-\	De-	2.g\	De-
4A\	.	4c\	-i	4f\	.
2B-\	-i	2d\	qui	4d\	.
.	.	.	.	4e\	.
=3	=3	=3	=3	=3	=3
1F	qui	1c	tol-	1f	.
2G\	tol-	2B-\	.	2g\	.
=4	=4	=4	=4	=4	=4
1.F,<	-lis,	1.c	-lis	1.f	-i
=5	=5	=5	=5	=5	=5
2B-\	qui	2d\	qui	2d\	qui
2B-\	tol-	2d\	tol-	2d\	tol-
2F\	-lis	2c\	-lis	2f\	-lis
=6	=6	=6	=6	=6	=6
2G\	pec-	2B-\	pec-	2d\	pec-
2G\	-ca-	2B-\	-ca-	2d\	-ca-
2D\	-ta	2d\	-ta	2d\	-ta
=7	=7	=7	=7	=7	=7
2BB-/	Mun-	2B-\	Mun-	2d\	Mun-
2C/	.	4A/	.	2e-X\	.
.	.	4G/	.	.	.
2D/	.	2A\	.	2d\	.
=8	=8	=8	=8	=8	=8
1.GG	-di.	1.G	-di	1.d	-di.
!	!	!LO:LB:g=original	!	!LO:LB:g=original	!
=9	=9	=9	=9	=9	=9
1F	mi-	1c	mi-	1f	Mi-
2D/	-se-	2A\	-se-	2f\	-se-
!LO:LB:g=original	!	!	!	!	!
=10	=10	=10	=10	=10	=10
1C	-re-	1c	-re-	1e	-re-
2F\	-re	2A\	-re	2f\	-re
=11	=11	=11	=11	=11	=11
2BB-/	no-	2F/	no-	2d\	no-
1C	.	1G	.	1e	.
=12	=12	=12	=12	=12	=12
1.FF;	-bis	1.A;	-bis	1.f;	-bis.
=13||	=13||	=13||	=13||	=13||	=13||
*M3/2	*	*M3/2	*	*M3/2	*
1BB-	A-	1d	A-	1d	A-
2FF/	-gnus	2c\	-gnus	2f\	-gnus
=14	=14	=14	=14	=14	=14
1BB-	De-	1d	De-	1d	De-
2F\	-i	2c\	-i	2f\	-i
=15	=15	=15	=15	=15	=15
*	*	*	*ij	*	*
1C	a-	1G	A-	1e	a-
2C/	-gnus	2G/	-gnus	2e\	-gnus
=16	=16	=16	=16	=16	=16
1D	De-	1A	De-	1f	De-
!	!	!LO:SIC:v:s=2c/	!	!	!
2AA/	-i	2G/	-i	2f\	-i
*	*	*	*Xij	*	*
=17	=17	=17	=17	=17	=17
1BB-	qui	2d\	qui	1d	qui
.	.	2d\	tol-	.	.
2C/	tol-	4c\	-lis	2e\	tol-
.	.	4B-\	pec-	.	.
!	!	!LO:LB:g=original	!	!	!
=18	=18	=18	=18	=18	=18
1.FF	-lis	2A\	-ca-	1.f	-lis
.	.	2A\	-ta	.	.
.	.	2A\	pec-	.	.
!	!	!	!	!LO:LB:g=original	!
=19	=19	=19	=19	=19	=19
2C\	pec-	2G/	-ca-	2e\	qui
2C\	-ca-	2G,</	-ta,	2e\	tol-
2F\	-ta	2A/	pec-	2f\	-lis
!LO:LB:g=original	!	!	!	!	!
=20	=20	=20	=20	=20	=20
2D/	pec-	2A\	-ca-	2.f\	pec-
2D/	-ca-	2A\	-ta	.	.
.	.	.	.	4f\	-ca-
2C/	-ta	2G/	mun-	2e\	-ta
=21	=21	=21	=21	=21	=21
1FF	mun-	1c	-di	4B-\	Mun-
.	.	.	.	4c\	.
.	.	.	.	4d\	.
.	.	.	.	4e\	.
2GG/	-di	2d\	Mu-	4f\	.
.	.	.	.	4d\	.
=22	=22	=22	=22	=22	=22
2AA/	mun-	2c\	.	1f	.
2BB-/	.	4B-\	.	.	.
.	.	4A\	.	.	.
2C/	.	2G/	.	2e\	.
=23	=23	=23	=23	=23	=23
1.FF	-di	1.A	-di	1.f	-di
=24	=24	=24	=24	=24	=24
1F	Mi-	1c	mi-	1c	mi-
!	!	!LO:SIC:v:s=2c\	!	!	!
2E\	-se-	2d\	-se-	2c\	-se-
=25	=25	=25	=25	=25	=25
2.D/	-re-	1A	-re-	2.f\	-re-
4C/	.	.	.	4e\	.
2BB-/	-re	2B-\	-re	2d\	.
!	!	!LO:LB:g=original	!	!	!
=26	=26	=26	=26	=26	=26
2AA/	no-	2A\	no-	2f\	-re
1C	.	1G	.	1e	no-
=27	=27	=27	=27	=27	=27
1.FF	-bis	1.F;	-bis.	1.f;	-bis.
!	!	!	!	!LO:LB:g=original	!
=28||	=28||	=28||	=28||	=28||	=28||
*M3/2	*	*M3/2	*	*M3/2	*
1C	a-	1G	A-	1e	A-
2F\	-gnus	2A/	-gnus	2f\	-gnus
!LO:LB:g=original	!	!	!	!	!
=29	=29	=29	=29	=29	=29
1C	De-	1G	De-	1e	De-
2F\	-i	2A/	-i	2f\	-i
=30	=30	=30	=30	=30	=30
1D	qui	1A	qui	1f	De-
2C/	tol-	2c\	tol-	2e\	.
=31	=31	=31	=31	=31	=31
1.FF	-lis	1.c	-lis	1.f	-i
=32	=32	=32	=32	=32	=32
2F\	pec-	2A\	qui	2f\	qui
2F\	-ca-	2A\	tol-	2f\	tol-
2C/	-ta	2c\	-lis	2e\	-lis
=33	=33	=33	=33	=33	=33
2FF/	pec-	2c\	pec-	2a\	pec-
2FF/	-ca-	2c\	-ca-	2a\	-ca-
2GG/	-ta	2B-\	-ta	2g\	-ta
=34	=34	=34	=34	=34	=34
2AA/	mun-	1F	Mun-	1f	Mun-
2BB-/	.	.	.	.	.
2C/	.	2G/	.	2e\	.
!	!	!LO:LB:g=original	!	!	!
=35	=35	=35	=35	=35	=35
1.FF	-di	1.F	-di	1.f	-di
=36	=36	=36	=36	=36	=36
1F	Do-	1c	Do-	1f	do-
2E\	-na	2c\	-na	2g\	-na
!	!	!	!	!LO:LB:g=original	!
=37	=37	=37	=37	=37	=37
1F	no-	1c	no-	1f	no-
2BB-/	-bis	2d\	-bis	2f\	-bis
=38	=38	=38	=38	=38	=38
1FF	pa-	1c	pa-	2a\	pa-
.	.	.	.	1g	.
2C/	.	2c\	.	.	.
=39	=39	=39	=39	=39	=39
1.FF	-cem	1.c	-cem	1.f	-cem
!LO:LB:g=original	!	!	!	!	!
=40	=40	=40	=40	=40	=40
1FF	do-	1A	do-	1c	do-
2FF/	-na	2A/	-na	2c\	-na
=41	=41	=41	=41	=41	=41
1GG	no-	1G	no-	2.d\	no-
.	.	.	.	4e\	.
2AA/	-bis	2F/	-bis	2f\	-bis
=42	=42	=42	=42	=42	=42
2BB-/	pa-	2c\	pa-	1a	pa-
1C	.	(4B-\	.	.	.
.	.	4A\	.	.	.
.	.	2G/)	.	2g\	.
=43	=43	=43	=43	=43	=43
2FF,/	-cem,	2A,<\	-cem	2a\	-cem
2BB-/	do-	2B-\	do-	2d\	do-
2BB-/	-na	2B-\	-na	2d\	-na
!	!	!LO:LB:g=original	!	!	!
=44	=44	=44	=44	=44	=44
1FF	no-	1A	no-	1f	no-
2GG/	-bis	2G/	-bis	2d\	-bis
=45	=45	=45	=45	=45	=45
1D	pa-	1F	pa-	1d	pa-
2GG/	-ce(m)	2G/	-cem	2d\	-cem
!	!	!	!	!LO:LB:g=original	!
=46	=46	=46	=46	=46	=46
2.C/	do-	2.G/	do-	2.c\	do-
4C/	-na	4G/	-na	4c\	-na
4GG/	no-	4B-/	no-	4d\	no-
4GG/	-bis	4B-/	-bis	4d\	-bis
=47	=47	=47	=47	=47	=47
1.C	pa-	2.G/	pa-	1.g	pa-
.	.	4F/	.	.	.
.	.	4G/	.	.	.
.	.	4A/	.	.	.
=48	=48	=48	=48	=48	=48
1.GGl;	-cem.	1.B-l;	-cem.	1.gl;	-cem.
==	==	==	==	==	==
*-	*-	*-	*-	*-	*-
!!!system-decoration: [(s1,s2,s3)]
!!!RDF**kern: > = above
!!!RDF**kern: < = below
!!!RDF**kern: l = terminal long
!!!ENC: Andrzej Kubiczek
!!!END: 2021-07-20
!!!ENC: Krzysztof Stępień
!!!END: 2021-07-01
!!!YEC: Copyright 2022 Narodowy Instytut Fryderyka Chopina (https://polishscores.org)
!!!YEM: Licence CC BY 4.0 (https://creativecommons.org/licenses/by/4.0)
